Sweet-Rainbow/icons/ghex.svg

<?xml version="1.0" encoding="UTF-8" standalone="no"?>
<!-- Generator: Gravit.io -->

<svg
   xmlns:dc="http://purl.org/dc/elements/1.1/"
   xmlns:cc="http://creativecommons.org/ns#"
   xmlns:rdf="http://www.w3.org/1999/02/22-rdf-syntax-ns#"
   xmlns:svg="http://www.w3.org/2000/svg"
   xmlns="http://www.w3.org/2000/svg"
   xmlns:sodipodi="http://sodipodi.sourceforge.net/DTD/sodipodi-0.dtd"
   xmlns:inkscape="http://www.inkscape.org/namespaces/inkscape"
   style="isolation:isolate"
   viewBox="0 0 36 36"
   width="48"
   height="48"
   version="1.1"
   id="svg13"
   sodipodi:docname="ghex.svg"
   inkscape:version="0.92.4 (5da689c313, 2019-01-14)">
  <metadata
     id="metadata19">
    <rdf:RDF>
      <cc:Work
         rdf:about="">
        <dc:format>image/svg+xml</dc:format>
        <dc:type
           rdf:resource="http://purl.org/dc/dcmitype/StillImage" />
        <dc:title></dc:title>
      </cc:Work>
    </rdf:RDF>
  </metadata>
  <defs
     id="defs17" />
  <sodipodi:namedview
     pagecolor="#ffffff"
     bordercolor="#666666"
     borderopacity="1"
     objecttolerance="10"
     gridtolerance="10"
     guidetolerance="10"
     inkscape:pageopacity="0"
     inkscape:pageshadow="2"
     inkscape:window-width="640"
     inkscape:window-height="480"
     id="namedview15"
     showgrid="false"
     inkscape:zoom="29.365243"
     inkscape:cx="25.325443"
     inkscape:cy="32"
     inkscape:current-layer="svg13"
     units="px" />
  <linearGradient
     id="_lgradient_24"
     x1="0"
     y1="0.5"
     x2="0.99995631"
     y2="0.50934696"
     gradientTransform="matrix(44.66,0,0,44,1.67,2)"
     gradientUnits="userSpaceOnUse">
    <stop
       offset="34.94098066785295%"
       stop-opacity="1"
       style="stop-color:rgb(178,229,107)"
       id="stop2" />
    <stop
       offset="53.84922244785295%"
       stop-opacity="1"
       style="stop-color:rgb(194,233,100)"
       id="stop4" />
    <stop
       offset="90.40515655585295%"
       stop-opacity="1"
       style="stop-color:rgb(236,244,81)"
       id="stop6" />
    <stop
       offset="100%"
       stop-opacity="1"
       style="stop-color:rgb(250,247,75)"
       id="stop8" />
  </linearGradient>
  <g
     id="g827"
     transform="matrix(0.80609046,0,0,0.80609046,-1.346171,-1.346171)">
    <path
       id="path11"
       d="m 7.79,17.11 v 0 c 0.491,0.982 0.09,2.181 -0.895,2.675 v 0 C 5.91,20.279 4.707,19.878 4.21,18.89 v 0 L 1.72,13.91 8.87,2 h 12.26 l 6,10 h 12 l 7.2,12 -7.2,12 H 24.76 l -2.55,-5.11 v 0 c -0.491,-0.982 -0.09,-2.181 0.895,-2.675 v 0 c 0.985,-0.494 2.188,-0.093 2.685,0.895 v 0 L 27.24,32 h 9.63 l 4.8,-8 -4.8,-8 h -12 l -6,-10 H 11.13 L 6.28,14.09 Z M 21.4,38.8 v 0 c 0.662,-0.883 1.917,-1.062 2.8,-0.4 v 0 c 0.883,0.662 1.062,1.917 0.4,2.8 v 0 L 21,46 H 8.87 L 1.67,34 8.87,22 h 9.89 l 1.45,-2.89 v 0 c 0.497,-0.988 1.7,-1.389 2.685,-0.895 v 0 c 0.985,0.494 1.386,1.693 0.895,2.675 v 0 L 21.24,26 H 11.13 l -4.8,8 4.8,8 H 19 Z"
       inkscape:connector-curvature="0"
       style="fill:url(#_lgradient_24);fill-rule:evenodd" />
  </g>
</svg>

<?xml version="1.0" encoding="UTF-8" standalone="no"?><!-- Generator: Gravit.io --><svg xmlns="http://www.w3.org/2000/svg" xmlns:xlink="http://www.w3.org/1999/xlink" style="isolation:isolate" viewBox="0 0 48 48" width="48pt" height="48pt"><linearGradient id="_lgradient_24" x1="0" y1="0.5" x2="0.9999563164458355" y2="0.5093469353306884" gradientTransform="matrix(44.66,0,0,44,1.67,2)" gradientUnits="userSpaceOnUse"><stop offset="34.94098066785295%" stop-opacity="1" style="stop-color:rgb(178,229,107)"/><stop offset="53.84922244785295%" stop-opacity="1" style="stop-color:rgb(194,233,100)"/><stop offset="90.40515655585295%" stop-opacity="1" style="stop-color:rgb(236,244,81)"/><stop offset="100%" stop-opacity="1" style="stop-color:rgb(250,247,75)"/></linearGradient><path d=" M 7.79 17.11 L 7.79 17.11 C 8.281 18.092 7.88 19.291 6.895 19.785 L 6.895 19.785 C 5.91 20.279 4.707 19.878 4.21 18.89 L 4.21 18.89 L 1.72 13.91 L 8.87 2 L 21.13 2 L 27.13 12 L 39.13 12 L 46.33 24 L 39.13 36 L 24.76 36 L 22.21 30.89 L 22.21 30.89 C 21.719 29.908 22.12 28.709 23.105 28.215 L 23.105 28.215 C 24.09 27.721 25.293 28.122 25.79 29.11 L 25.79 29.11 L 27.24 32 L 36.87 32 L 41.67 24 L 36.87 16 L 24.87 16 L 18.87 6 L 11.13 6 L 6.28 14.09 L 7.79 17.11 Z  M 21.4 38.8 L 21.4 38.8 C 22.062 37.917 23.317 37.738 24.2 38.4 L 24.2 38.4 C 25.083 39.062 25.262 40.317 24.6 41.2 L 24.6 41.2 L 21 46 L 8.87 46 L 1.67 34 L 8.87 22 L 18.76 22 L 20.21 19.11 L 20.21 19.11 C 20.707 18.122 21.91 17.721 22.895 18.215 L 22.895 18.215 C 23.88 18.709 24.281 19.908 23.79 20.89 L 23.79 20.89 L 21.24 26 L 11.13 26 L 6.33 34 L 11.13 42 L 19 42 L 21.4 38.8 Z " fill-rule="evenodd" fill="url(#_lgradient_24)"/></svg>
